svgs/thin/teeth-open.svg

<svg xmlns="http://www.w3.org/2000/svg" viewBox="0 0 576 512"><!--! Font Awesome Pro 6.6.0 by @fontawesome - https://fontawesome.com License - https://fontawesome.com/license (Commercial License) Copyright 2024 Fonticons, Inc. --><path d="M480 48c44.2 0 80 35.8 80 80l0 64c0 26.5-21.5 48-48 48l0-44c0-33.1-26.9-60-60-60c-17.9 0-34.1 7.9-45.1 20.4C401.5 126.6 375.4 104 344 104c-24.1 0-45.1 13.3-56 33c-10.9-19.7-31.9-33-56-33c-31.4 0-57.5 22.6-62.9 52.4c-11-12.5-27.1-20.4-45.1-20.4c-33.1 0-60 26.9-60 60l0 44c-26.5 0-48-21.5-48-48l0-64c0-44.2 35.8-80 80-80l384 0zM168 196l0 44-88 0 0-44c0-24.3 19.7-44 44-44s44 19.7 44 44zm112-28l0 72-96 0 0-44 0-28c0-26.5 21.5-48 48-48s48 21.5 48 48zm112 28l0 44-96 0 0-72c0-26.5 21.5-48 48-48s48 21.5 48 48l0 28zm104 0l0 44-88 0 0-44c0-24.3 19.7-44 44-44s44 19.7 44 44zM64 256l8 0 104 0 112 0 112 0 104 0 8 0c35.3 0 64-28.7 64-64l0-64c0-53-43-96-96-96L96 32C43 32 0 75 0 128l0 64c0 35.3 28.7 64 64 64zM560 384c0 44.2-35.8 80-80 80L96 464c-44.2 0-80-35.8-80-80l0-32c0-26.5 21.5-48 48-48l0 36c0 33.1 26.9 60 60 60c19.9 0 37.5-9.7 48.4-24.6c9.4 23.8 32.5 40.6 59.6 40.6c24.1 0 45.1-13.3 56-33c10.9 19.7 31.9 33 56 33c27.1 0 50.2-16.8 59.6-40.6C414.5 390.3 432.1 400 452 400c33.1 0 60-26.9 60-60l0-36c26.5 0 48 21.5 48 48l0 32zM168 340c0 24.3-19.7 44-44 44s-44-19.7-44-44l0-36 88 0 0 36zm112 12c0 26.5-21.5 48-48 48s-48-21.5-48-48l0-12 0-36 96 0 0 48zm112-12l0 12c0 26.5-21.5 48-48 48s-48-21.5-48-48l0-48 96 0 0 36zm104 0c0 24.3-19.7 44-44 44s-44-19.7-44-44l0-36 88 0 0 36zM64 288c-35.3 0-64 28.7-64 64l0 32c0 53 43 96 96 96l384 0c53 0 96-43 96-96l0-32c0-35.3-28.7-64-64-64l-8 0-104 0-112 0-112 0L72 288l-8 0z"/></svg>

<svg xmlns="http://www.w3.org/2000/svg" viewBox="0 0 576 512"><!--! Font Awesome Pro 6.4.0 by @fontawesome - https://fontawesome.com License - https://fontawesome.com/license (Commercial License) Copyright 2023 Fonticons, Inc. --><path d="M480 48c44.2 0 80 35.8 80 80v64c0 26.5-21.5 48-48 48V196c0-33.1-26.9-60-60-60c-17.9 0-34.1 7.9-45.1 20.4C401.5 126.6 375.4 104 344 104c-24.1 0-45.1 13.3-56 33c-10.9-19.7-31.9-33-56-33c-31.4 0-57.5 22.6-62.9 52.4c-11-12.5-27.1-20.4-45.1-20.4c-33.1 0-60 26.9-60 60l0 44c-26.5 0-48-21.5-48-48V128c0-44.2 35.8-80 80-80H480zM168 196v44H80V196c0-24.3 19.7-44 44-44s44 19.7 44 44zm112-28v72H184V196 168c0-26.5 21.5-48 48-48s48 21.5 48 48zm112 28v44H296V168c0-26.5 21.5-48 48-48s48 21.5 48 48v28zm104 0v44H408V196c0-24.3 19.7-44 44-44s44 19.7 44 44zM64 256h8H176 288 400 504h8c35.3 0 64-28.7 64-64V128c0-53-43-96-96-96H96C43 32 0 75 0 128v64c0 35.3 28.7 64 64 64zM560 384c0 44.2-35.8 80-80 80H96c-44.2 0-80-35.8-80-80V352c0-26.5 21.5-48 48-48l0 36c0 33.1 26.9 60 60 60c19.9 0 37.5-9.7 48.4-24.6c9.4 23.8 32.5 40.6 59.6 40.6c24.1 0 45.1-13.3 56-33c10.9 19.7 31.9 33 56 33c27.1 0 50.2-16.8 59.6-40.6C414.5 390.3 432.1 400 452 400c33.1 0 60-26.9 60-60V304c26.5 0 48 21.5 48 48v32zM168 340c0 24.3-19.7 44-44 44s-44-19.7-44-44V304h88v36zm112 12c0 26.5-21.5 48-48 48s-48-21.5-48-48V340 304h96v48zm112-12v12c0 26.5-21.5 48-48 48s-48-21.5-48-48V304h96v36zm104 0c0 24.3-19.7 44-44 44s-44-19.7-44-44V304h88v36zM64 288c-35.3 0-64 28.7-64 64v32c0 53 43 96 96 96H480c53 0 96-43 96-96V352c0-35.3-28.7-64-64-64h-8H400 288 176 72 64z"/></svg>
